app/img/logo.svg

<svg width="186" height="32" viewBox="0 0 186 32" fill="none" xmlns="http://www.w3.org/2000/svg">
<g clip-path="url(#clip0_388_9577)">
<path d="M27.8332 5.44587C25.6425 3.23873 22.814 1.70012 19.7055 1.0246C16.597 0.349069 13.3481 0.566967 10.3696 1.65073C7.39109 2.7345 4.81674 4.63546 2.97209 7.11325C1.12744 9.59103 0.0953396 12.5343 0.00629104 15.571C-0.0827575 18.6077 0.775249 21.6013 2.47181 24.1734C4.16838 26.7454 6.62731 28.7804 9.53766 30.0209C12.448 31.2615 15.6791 31.6519 18.8223 31.1428C21.9655 30.6337 24.8797 29.248 27.1964 27.1608C30.3024 24.3613 32.1143 20.5011 32.2337 16.429C32.3531 12.3568 30.7703 8.40624 27.8332 5.44587ZM5.43982 25.6231C3.30193 23.4684 1.93682 20.7229 1.54104 17.7819C1.14525 14.8408 1.73921 11.856 3.23739 9.25709C4.73557 6.6582 7.06068 4.57935 9.87795 3.31984C12.6952 2.06034 15.8593 1.68517 18.9146 2.24834L16.4114 5.34649C15.2639 6.76194 13.9514 8.04873 12.4993 9.18213L8.1077 12.6063L13.2458 17.6327C13.952 18.324 14.3574 19.2443 14.3809 20.2086C14.4043 21.173 14.0439 22.1101 13.3721 22.8318L10.3913 19.3727L10.5286 20.0963C10.7003 21.0063 10.6534 21.9415 10.3913 22.8318L8.71337 23.2119V23.5606C8.71345 23.6439 8.68639 23.7252 8.63592 23.7933C8.58545 23.8614 8.51405 23.9128 8.43158 23.9406L6.78474 24.4863L7.80395 26.0677L14.4224 26.5384L23.0226 28.3673C20.1802 29.8052 16.9214 30.3154 13.7456 29.8197C10.5698 29.324 7.65217 27.8499 5.43982 25.6231ZM23.0793 19.228C22.6134 18.7642 22.3467 18.1509 22.3318 17.509C22.3169 16.8672 22.5549 16.2432 22.9988 15.7603C23.2588 15.48 23.5806 15.258 23.9412 15.1099C23.0358 14.2469 22.4354 13.1364 22.2235 11.933C22.0116 10.7295 22.1988 9.49311 22.7591 8.39583L23.7307 6.49195C22.6426 6.44229 21.6162 5.99598 20.8638 5.24536C20.1114 4.49473 19.6907 3.49725 19.6887 2.4593C19.6887 2.44012 19.6887 2.42269 19.6887 2.40525C22.0336 2.96541 24.1975 4.06789 25.9885 5.61506C27.7796 7.16222 29.1426 9.10633 29.9569 11.2752C30.7711 13.4441 31.0115 15.7708 30.6567 18.0494C30.3019 20.3279 29.3629 22.4879 27.9229 24.3381L23.0793 19.228Z" fill="white"/>
<path d="M52.7811 20.5916C52.7811 19.4511 52.381 18.5479 51.5808 17.8821C50.7806 17.2162 49.3184 16.5842 47.1942 15.9861C45.0688 15.3869 43.5173 14.7337 42.5397 14.0267C41.1421 13.0279 40.4463 11.7167 40.4523 10.0932C40.4523 8.51929 41.0986 7.239 42.3912 6.2523C43.6839 5.2656 45.3368 4.77285 47.3499 4.77406C48.6146 4.75212 49.8673 5.02307 51.0106 5.56584C52.0365 6.04888 52.9047 6.81399 53.5143 7.7723C54.1066 8.71695 54.4152 9.81267 54.4032 10.9285H52.6544C52.6544 9.51931 52.1747 8.38612 51.2151 7.52896C50.2556 6.6718 48.9672 6.24382 47.3499 6.24503C45.7809 6.24503 44.5305 6.59674 43.5988 7.30014C43.1587 7.6098 42.8011 8.02309 42.5574 8.50374C42.3137 8.98439 42.1914 9.5177 42.2012 10.0568C42.1913 10.5541 42.3001 11.0465 42.5187 11.4929C42.7373 11.9393 43.0592 12.3268 43.4576 12.6229C44.294 13.2839 45.6337 13.8669 47.4767 14.3717C49.3196 14.8766 50.7167 15.4008 51.6677 15.9444C52.5304 16.4066 53.2666 17.0745 53.8113 17.8893C54.3057 18.6919 54.5573 19.6211 54.5354 20.5643C54.5546 21.3245 54.3879 22.0778 54.0499 22.7584C53.7119 23.439 53.2129 24.0262 52.5965 24.4688C51.3014 25.4494 49.5966 25.9397 47.4821 25.9397C46.1156 25.9551 44.7603 25.6906 43.4992 25.1625C42.2923 24.6431 41.3756 23.9167 40.7492 22.9832C40.1184 22.0329 39.7913 20.9123 39.8114 19.7707H41.5458C41.5458 21.2235 42.0889 22.37 43.1751 23.2103C44.2614 24.0505 45.7001 24.47 47.4911 24.4688C49.0903 24.4688 50.3739 24.1152 51.3419 23.4082C51.7964 23.0959 52.1661 22.6747 52.4175 22.1829C52.6688 21.6911 52.7938 21.1441 52.7811 20.5916Z" fill="white"/>
<path d="M59.5622 17.271V25.6628H57.8242V5.06189H64.8214C66.9553 5.06189 68.6408 5.60669 69.8779 6.6963C71.115 7.78591 71.7335 9.29078 71.7335 11.2109C71.7335 13.148 71.1385 14.6408 69.9485 15.6892C68.7584 16.7377 67.0349 17.2631 64.778 17.2655L59.5622 17.271ZM59.5622 15.8H64.8232C66.5045 15.8 67.7881 15.3986 68.6739 14.596C69.5598 13.7933 70.0016 12.6734 69.9992 11.2363C69.9992 9.81016 69.5598 8.67455 68.6812 7.8295C67.8025 6.98444 66.554 6.55223 64.9355 6.53286H59.5622V15.8Z" fill="white"/>
<path d="M79.7593 16.2958L86.0359 5.06189H88.0382L80.6156 17.9084V25.6628H78.8812V17.9084L71.4785 5.06189H73.5387L79.7593 16.2958Z" fill="white"/>
<path d="M90.5371 25.6639V5.06303H96.2779C97.8618 5.0377 99.424 5.43571 100.804 6.2162C102.144 6.98906 103.229 8.13703 103.929 9.51953C104.697 11.0373 105.081 12.721 105.049 14.4228V16.3114C105.049 18.1492 104.678 19.7836 103.934 21.2147C103.232 22.5977 102.141 23.7442 100.797 24.5125C99.3769 25.3043 97.7734 25.7046 96.1493 25.673L90.5371 25.6639ZM92.2715 6.534V24.1911H96.1638C98.3279 24.1911 100.063 23.4714 101.369 22.0319C102.675 20.5924 103.328 18.6456 103.329 16.1916V14.3756C103.329 12.0063 102.685 10.1085 101.398 8.68234C100.11 7.25617 98.4123 6.54005 96.305 6.534H92.2715Z" fill="white"/>
<path d="M119.348 15.7855H109.742V24.19H120.786V25.6628H108.008V5.06189H120.717V6.53286H109.742V14.3145H119.348V15.7855Z" fill="white"/>
<path d="M131.435 17.073H125.461V25.6628H123.723V5.06189H130.396C132.586 5.06189 134.298 5.59398 135.53 6.65817C136.762 7.72235 137.378 9.21088 137.377 11.1237C137.395 12.3863 136.985 13.6175 136.214 14.6159C135.433 15.6317 134.344 16.3658 133.111 16.708L138.246 25.4793V25.6609H136.395L131.435 17.073ZM125.461 15.602H130.783C132.241 15.602 133.412 15.1862 134.295 14.3544C135.179 13.5227 135.621 12.4458 135.621 11.1237C135.621 9.67094 135.16 8.54198 134.239 7.73688C133.318 6.93178 132.025 6.53044 130.36 6.53286H125.471L125.461 15.602Z" fill="white"/>
<path d="M141.088 25.6628V5.06189H147.153C149.354 5.06189 151.023 5.5171 152.16 6.42753C153.297 7.33796 153.866 8.6806 153.868 10.4555C153.889 11.4529 153.584 12.43 153 13.2376C152.405 14.0377 151.573 14.6292 150.623 14.9283C151.755 15.16 152.771 15.779 153.498 16.6795C154.224 17.5799 154.616 18.7058 154.606 19.8642C154.606 21.6802 154.021 23.1016 152.85 24.1282C151.679 25.1549 150.05 25.6664 147.962 25.6628H141.088ZM142.822 14.3H147.562C149.01 14.2721 150.131 13.9295 150.926 13.2721C151.72 12.6147 152.117 11.6583 152.119 10.4028C152.119 9.07831 151.707 8.1025 150.884 7.47537C150.061 6.84824 148.817 6.53407 147.153 6.53286H142.822V14.3ZM142.822 15.7727V24.19H148.027C149.514 24.19 150.692 23.811 151.561 23.0532C152.43 22.2953 152.866 21.2432 152.87 19.8969C152.87 18.6257 152.454 17.6202 151.621 16.8805C150.788 16.1408 149.635 15.7715 148.163 15.7727H142.822Z" fill="white"/>
<path d="M168.866 19.8824H159.542L157.428 25.67H155.617L163.38 5.06189H165.029L172.801 25.6628H170.991L168.866 19.8824ZM160.08 18.4114H168.317L164.198 7.183L160.08 18.4114Z" fill="white"/>
<path d="M186.001 6.53286H178.962V25.6628H177.227V6.53286H170.203V5.06189H186.001V6.53286Z" fill="white"/>
</g>
<defs>
<clipPath id="clip0_388_9577">
<rect width="186" height="32" fill="white"/>
</clipPath>
</defs>
</svg>

<svg width="186" height="32" fill="none" xmlns="http://www.w3.org/2000/svg"><g clip-path="url(#clip0_388_9577)" fill="#fff"><path d="M27.833 5.446c-2.19-2.207-5.019-3.746-8.127-4.421a16.874 16.874 0 00-9.336.626C7.39 2.735 4.817 4.635 2.972 7.113a14.884 14.884 0 00-2.966 8.458 14.817 14.817 0 002.466 8.602c1.696 2.572 4.155 4.607 7.066 5.848a16.849 16.849 0 009.284 1.122c3.143-.51 6.058-1.895 8.374-3.982 3.106-2.8 4.918-6.66 5.038-10.732.12-4.072-1.464-8.023-4.4-10.983zM5.44 25.623c-2.138-2.155-3.503-4.9-3.899-7.841a13.447 13.447 0 011.696-8.525C4.736 6.658 7.061 4.58 9.878 3.32a15.362 15.362 0 019.037-1.072L16.41 5.346a24.208 24.208 0 01-3.91 3.836l-4.391 3.424 5.138 5.027a3.732 3.732 0 011.135 2.576 3.715 3.715 0 01-1.009 2.623l-2.98-3.46.137.724a5.84 5.84 0 01-.138 2.736l-1.678.38v.349a.39.39 0 01-.077.232.421.421 0 01-.204.148l-1.647.545 1.019 1.582 6.618.47 8.6 1.83a15.349 15.349 0 01-9.276 1.452c-3.176-.496-6.094-1.97-8.306-4.197zm17.64-6.395a2.508 2.508 0 01-.748-1.719 2.497 2.497 0 01.667-1.749c.26-.28.582-.502.942-.65a5.777 5.777 0 01-1.717-3.177 5.62 5.62 0 01.535-3.537l.972-1.904a4.34 4.34 0 01-2.867-1.247 3.945 3.945 0 01-1.175-2.786v-.054a14.946 14.946 0 016.3 3.21 13.987 13.987 0 013.968 5.66 13.388 13.388 0 01.7 6.774 13.661 13.661 0 01-2.734 6.29l-4.844-5.111zm29.701 1.364c0-1.14-.4-2.044-1.2-2.71-.8-.666-2.263-1.298-4.387-1.896-2.125-.6-3.677-1.252-4.654-1.96-1.398-.998-2.094-2.31-2.088-3.933 0-1.574.647-2.854 1.94-3.84 1.292-.987 2.945-1.48 4.958-1.479a8.204 8.204 0 013.66.792 5.994 5.994 0 012.504 2.206c.593.945.901 2.04.89 3.156h-1.75c0-1.409-.48-2.542-1.439-3.399-.96-.857-2.248-1.285-3.865-1.284-1.57 0-2.82.352-3.751 1.055a3.291 3.291 0 00-1.398 2.757 3.124 3.124 0 001.257 2.566c.836.66 2.176 1.244 4.019 1.749 1.843.505 3.24 1.029 4.19 1.572a5.97 5.97 0 012.144 1.945 4.88 4.88 0 01.724 2.675 4.668 4.668 0 01-1.938 3.905c-1.296.98-3 1.47-5.115 1.47a10.019 10.019 0 01-3.983-.776c-1.207-.52-2.123-1.246-2.75-2.18a5.63 5.63 0 01-.938-3.212h1.735c0 1.453.543 2.599 1.63 3.44 1.085.84 2.524 1.259 4.315 1.258 1.6 0 2.883-.354 3.85-1.06a3.32 3.32 0 001.44-2.817zm6.781-3.321v8.392h-1.738V5.062h6.997c2.134 0 3.82.545 5.057 1.634 1.237 1.09 1.856 2.595 1.856 4.515 0 1.937-.596 3.43-1.785 4.478-1.19 1.049-2.914 1.574-5.171 1.576l-5.216.006zm0-1.471h5.261c1.681 0 2.965-.401 3.85-1.204.887-.803 1.329-1.923 1.326-3.36 0-1.426-.44-2.561-1.318-3.407-.879-.845-2.127-1.277-3.745-1.296h-5.374V15.8zm20.198.496l6.276-11.234h2.002l-7.422 12.846v7.755H78.88v-7.755L71.478 5.062h2.06l6.221 11.234zm10.777 9.368V5.063h5.74a8.904 8.904 0 014.527 1.153 7.964 7.964 0 013.125 3.304 10.426 10.426 0 011.12 4.903v1.888c0 1.838-.371 3.473-1.115 4.904a7.936 7.936 0 01-3.137 3.297 9.176 9.176 0 01-4.648 1.161l-5.612-.01zm1.734-19.13v17.657h3.893c2.164 0 3.899-.72 5.205-2.16 1.306-1.439 1.959-3.385 1.96-5.84v-1.815c0-2.37-.644-4.268-1.931-5.694-1.288-1.426-2.986-2.142-5.093-2.148h-4.034zm27.077 9.252h-9.606v8.404h11.044v1.473h-12.778V5.062h12.709v1.47h-10.975v7.783h9.606v1.47zm12.087 1.287h-5.974v8.59h-1.738V5.062h6.673c2.19 0 3.902.532 5.134 1.596 1.232 1.064 1.848 2.553 1.847 4.466a5.584 5.584 0 01-1.163 3.492 5.907 5.907 0 01-3.103 2.092l5.135 8.771v.182h-1.851l-4.96-8.588zm-5.974-1.471h5.322c1.458 0 2.629-.416 3.512-1.248.884-.831 1.326-1.908 1.326-3.23 0-1.453-.461-2.582-1.382-3.387-.921-.805-2.214-1.207-3.879-1.204h-4.889l-.01 9.069zm15.627 10.061V5.062h6.065c2.201 0 3.87.455 5.007 1.366 1.137.91 1.706 2.253 1.708 4.028a4.584 4.584 0 01-.868 2.782 4.734 4.734 0 01-2.377 1.69 4.978 4.978 0 012.875 1.752 5.006 5.006 0 011.108 3.184c0 1.816-.585 3.238-1.756 4.264-1.171 1.027-2.8 1.538-4.888 1.535h-6.874zm1.734-11.363h4.74c1.448-.028 2.569-.37 3.364-1.028.794-.657 1.191-1.614 1.193-2.87 0-1.324-.412-2.3-1.235-2.927-.823-.627-2.067-.94-3.731-.942h-4.331V14.3zm0 1.473v8.417h5.205c1.487 0 2.665-.379 3.534-1.137.869-.758 1.305-1.81 1.309-3.156 0-1.271-.416-2.277-1.249-3.016-.833-.74-1.986-1.11-3.458-1.108h-5.341zm26.044 4.109h-9.324l-2.114 5.788h-1.811l7.763-20.608h1.649l7.772 20.6h-1.81l-2.125-5.78zm-8.786-1.47h8.237l-4.119-11.229-4.118 11.228zm25.921-11.879h-7.039v19.13h-1.735V6.533h-7.024V5.062h15.798v1.47z"/></g><defs><clipPath id="clip0_388_9577"><path fill="#fff" d="M0 0h186v32H0z"/></clipPath></defs></svg>
